icons/label-arrow-right.svg

<svg xmlns="http://www.w3.org/2000/svg" width="24" height="24" viewBox="0 0 24 24">
  <path d="M15.0924635,4 C15.6691887,4 16.2178408,4.24896086 16.5976169,4.68299078 L21.8476169,10.6829908 C22.5074124,11.4370428 22.5074124,12.5629572 21.8476169,13.3170092 L16.5976169,19.3170092 C16.2178408,19.7510391 15.6691887,20 15.0924635,20 L4,20 C2.8954305,20 2,19.1045695 2,18 L2,6 C2,4.8954305 2.8954305,4 4,4 L15.0924635,4 Z M13.7837744,11.3788907 L13.7803112,11.374551 L13.767,11.359 L13.775,11.37 L13.7071068,11.2928932 L10.7071068,8.29289322 L10.6128994,8.20970461 C10.2206082,7.90467972 9.65337718,7.93240926 9.29289322,8.29289322 C8.90236893,8.68341751 8.90236893,9.31658249 9.29289322,9.70710678 L9.29289322,9.70710678 L10.585,11 L7,11 L6.88337887,11.0067277 C6.38604019,11.0644928 6,11.4871642 6,12 C6,12.5522847 6.44771525,13 7,13 L7,13 L10.585,13 L9.29289322,14.2928932 L9.20970461,14.3871006 C8.90467972,14.7793918 8.93240926,15.3466228 9.29289322,15.7071068 C9.68341751,16.0976311 10.3165825,16.0976311 10.7071068,15.7071068 L10.7071068,15.7071068 L13.7071068,12.7071068 L13.7803112,12.625449 C13.7826279,12.6225624 13.7849289,12.6196628 13.7902954,12.6128994 C13.7948255,12.6070733 13.7992821,12.6012086 13.8036865,12.5951593 C13.8215099,12.5711307 13.8382813,12.546275 13.8540045,12.5207088 C13.8613931,12.5086131 13.8685012,12.4963944 13.8751242,12.484277 C13.8862061,12.4642939 13.8966234,12.4438914 13.9063266,12.4232215 L13.9063266,12.4232215 L13.928896,12.3710585 C13.9366843,12.3515792 13.9438775,12.3317977 13.9502619,12.3121425 C13.9552713,12.2968513 13.9599023,12.2814633 13.964279,12.2658396 C13.9701664,12.2444365 13.9753602,12.2227461 13.9797599,12.2007258 C13.9832978,12.1833753 13.9863719,12.165949 13.9889807,12.1489612 L13.9889807,12.1489612 L13.996,12.081 L13.997,12.059 L13.997,12.075 L13.9982669,12.0590314 L13.999,12.019 L14,12 L14,12 L13.9998198,11.980824 L13.9982669,11.9409686 C13.9976744,11.9308872 13.99693,11.9208131 13.996002,11.909968 L13.996002,11.909968 L13.9889822,11.8515331 C13.9863719,11.834051 13.9832978,11.8166247 13.9798348,11.7992059 C13.9753602,11.7772539 13.9701664,11.7555635 13.9641549,11.734007 C13.9599023,11.7185367 13.9552713,11.7031487 13.9504533,11.6882636 C13.9438775,11.6682023 13.9366843,11.6484208 13.9287745,11.628664 L13.9287745,11.628664 L13.9063462,11.5769009 C13.8966234,11.5561086 13.8862061,11.5357061 13.8753288,11.5159379 L13.8753288,11.5159379 L13.8539326,11.4793398 C13.8382813,11.453725 13.8215099,11.4288693 13.8036654,11.4046934 L13.8036654,11.4046934 L13.779,11.374 L13.7837744,11.3788907 Z"/>
</svg>

<svg xmlns="http://www.w3.org/2000/svg" viewBox="0 0 24 24">
  <path d="M15.1 4a2 2 0 0 1 1.5.68l5.25 6a2 2 0 0 1 0 2.64l-5.25 6a2 2 0 0 1-1.5.68H4a2 2 0 0 1-2-2V6c0-1.1.9-2 2-2h11.1zm-1.32 7.38-.01-.02v.01l-.06-.08-3-3-.1-.08a1 1 0 0 0-1.32 1.5L10.6 11H6.88A1 1 0 0 0 7 13h3.59l-1.3 1.3-.08.09a1 1 0 0 0 1.5 1.32l3-3 .07-.08a3 3 0 0 0 .1-.15l.03-.06.02-.05a.95.95 0 0 0 .06-.22v-.09.01-.05L14 12v-.09l-.01-.06a1.1 1.1 0 0 0-.06-.22l-.02-.05a1.04 1.04 0 0 0-.03-.06l-.03-.04a1.03 1.03 0 0 0-.05-.08l-.02-.03z"/>
</svg>
